X: 661
T: Cleek him inn
R: reel
B: Robert Bremner "A Collection of Scots Reels or Country Dances" 1757 p.66 #1
S: http://imslp.org/wiki/A_Collection_of_Scots_Reels_or_Country_Dances_(Bremner,_Robert)
Z: 2013 John Chambers <jc:trillian.mit.edu>
N: The 2nd strain has initial repeat but no final repeat; not fixed.
M: C
L: 1/8
K: F
% - - - - - - - - - - - - - - - - - - - - - - - - -
V: 1
|:\
F>c c/c/c fcdA | BdcA G/G/G G2 |\
F>c c/c/c afge | cfeg f/f/f f2 :|\
|: a>gfa c/c/c ac | defa g/g/g g2 |
a>gfa c/c/c ac | d>fe>g f/f/f f2 |\
a>gfa c/c/c ac | defa g/g/g g2 |\
afge fcdB | cABG F/F/F F2 |]
% - - - - - - - - - - - - - - - - - - - - - - - - -
V: 2 clef=bass middle=d
|: |\
f2f2 f2f2 | f2f2 g2g2 |\
f2f2 f2f2 | c2c2 F2F2 :|\
|:\
f2f2 f2f2 | f2f2 g2g2 |
f2f2 f2f2 | c2c2 F2F2 |\
f2f2 f2f2 | f2f2 g2g2 |\
f2g2 a2b2 | c'2c2 f2f2 |]
% - - - - - - - - - - - - - - - - - - - - - - - - -

%%sep 1 1 500
%%sep 1 1 500
